!!!COM: Hensel, Fanny
!!!CDT: 1805/11/14-1847/05/14
!!!LYR: Eichendorff von, Joseph
!!!OTL: Schöne Fremde
**kern	**text	**dynam	**kern	**text	**dynam	**kern	**text	**dynam	**kern	**text	**dynam
*part4	*part4	*part4	*part3	*part3	*part3	*part2	*part2	*part2	*part1	*part1	*part1
*staff4	*staff4	*	*staff3	*staff3	*	*staff2	*staff2	*	*staff1	*staff1	*
*I"Baß	*	*	*I"Tenor	*	*	*I"Alt	*	*	*I"Sopran	*	*
*clefF4	*	*	*clefGv2	*	*	*clefG2	*	*	*clefG2	*	*
*k[f#]	*	*	*k[f#]	*	*	*k[f#]	*	*	*k[f#]	*	*
*e:	*	*	*e:	*	*	*e:	*	*	*e:	*	*
*M6/8	*	*	*M6/8	*	*	*M6/8	*	*	*M6/8	*	*
=	=	=	=	=	=	=	=	=	=	=	=
!	!	!LO:DY:a	!	!	!LO:DY:a	!	!	!LO:DY:a	!LO:TX:a:B:t=Moderato	!	!LO:DY:a
8E	Es	p	8B	Es	p	8g	Es	p	8b	Es	p
=1	=1	=1	=1	=1	=1	=1	=1	=1	=1	=1	=1
4.E	rau-	.	4.B	rau-	.	8e	rau-	.	8g	rau-	.
.	.	.	.	.	.	8f#	-schen	.	8a	-schen	.
.	.	.	.	.	.	8g	die	.	8a#X	die	.
4E	-schen	.	4B	-schen	.	8g	Wip-	.	8b	Wip-	.
.	.	.	.	.	.	8a	-fel	.	8cc	-fel	.
8E	die	.	8B	die	.	8g	und	.	8b	und	.
=2	=2	=2	=2	=2	=2	=2	=2	=2	=2	=2	=2
4.E	Wip-	.	8GL	Wip-	.	8eL	schau-	.	4.ee	schau-	.
.	.	.	8A	.	.	8f#	.	.	.	.	.
.	.	.	[8BJ	.	.	[8gJ	.	.	.	.	.
4E	-fel	.	8B]	.	.	8g]	-en,	.	4b	-en,	.
.	.	.	8A	-fel,	.	8f#	.	.	.	.	.
8E	zu	.	8G	als	.	8e	als	.	8b	als	.
=3	=3	=3	=3	=3	=3	=3	=3	=3	=3	=3	=3
[4.E	die-	.	4.c	mach-	.	8f#	mach-	.	8a	mach-	.
.	.	.	.	.	.	8g	-ten	.	8b	-ten	.
.	.	.	.	.	.	8a	zu	.	8cc	zu	.
4E]	.	.	4c	-ten	.	8a	die-	.	8cc	die-	.
.	.	.	.	.	.	8b	.	.	8dd	.	.
8E	-ser	.	8c	zu	.	8a	-ser	.	8cc	-ser	.
=4	=4	=4	=4	=4	=4	=4	=4	=4	=4	=4	=4
[4.D#X	Stund,	.	8AL	Stund	.	8f#L	Stund	.	4.ff#	Stund	.
.	.	.	8B	.	.	8g	.	.	.	.	.
.	.	.	[8cJ	.	.	[8aJ	.	.	.	.	.
4D#]	.	.	8c]	.	.	8a]	.	.	8r	.	.
.	.	.	8B	um	.	8g	um	.	8b	um	.
8D#	als	.	8A	die	.	8f#	die	.	8b	die	.
=5	=5	=5	=5	=5	=5	=5	=5	=5	=5	=5	=5
4.E	mach-	.	4G	halb-	.	4e	halb-	.	8bL	halb-	.
.	.	.	.	.	.	.	.	.	8ggJ	.	.
.	.	.	8G	-ver-	.	8e	-ver-	.	8ff#	-ver-	.
4G	-ten	.	8B	-fal-	.	8e	-fal-	.	8ee	-fal-	.
.	.	.	8B	-le-	.	8e	-le-	.	8b	-le-	.
8G	die	.	8B	-nen	.	8e	-nen	.	8g	-nen	.
=6	=6	=6	=6	=6	=6	=6	=6	=6	=6	=6	=6
!	!	!LO:DY:a	!	!	!LO:DY:a	!	!	!LO:DY:a	!	!	!LO:DY:a
4.A	al-	>	4.c	Mau-	>	4.d#X	Mau-	>	4.f#	Mau-	>
4G	-ten,	.	4B	-ern	.	4e	-ern	.	4e	-ern	.
8G	die	]	8B	die	]	8e	die	]	8g	die	]
=7	=7	=7	=7	=7	=7	=7	=7	=7	=7	=7	=7
8EL	al-	.	8GL	al-	.	8gL	al-	.	8bL	al-	.
8F#J	.	.	8AJ	.	.	8f#J	.	.	8aJ	.	.
8G	-ten	.	8B	-ten	.	8e	-ten	.	8g	-ten	.
8E	Göt-	.	8G	.	.	8g	.	.	8b	.	.
8F#	-ter	.	8A	Göt-	.	8f#	Göt-	.	8a	Göt-	.
8G	die	.	8B	-ter	.	8e	-ter	.	8g	-ter	.
=8	=8	=8	=8	=8	=8	=8	=8	=8	=8	=8	=8
(4.A	Rund,	.	(4.c	Rund,	.	[4.e	Rund,	.	[4.f#	Rund,	.
4A#X)	.	.	4c#X)	.	.	4e]	.	.	4f#]	.	.
8F#	es	.	8e	es	.	8f#	es	.	8r	.	.
=9	=9	=9	=9	=9	=9	=9	=9	=9	=9	=9	=9
(4B	rau-	.	4.d#X	rau-	.	(4f#	rau-	.	4.r	.	.
8c)	.	.	.	.	.	8a)	.	.	.	.	.
4B	-schen	.	4d#	-schen	.	4g	-schen	.	4r	.	.
8A	die	.	8d#	die	.	8f#	die	.	8b	es	.
=10	=10	=10	=10	=10	=10	=10	=10	=10	=10	=10	=10
4G	Wip-	.	4B	Wip-	.	4e	Wip-	.	8bL	rau-	.
.	.	.	.	.	.	.	.	.	8ee	.	.
8G	-fel,	.	8B	-fel,	.	8e	-fel,	.	8ddJ	.	.
4r	.	.	4r	.	.	4r	.	.	4cc	-schen	.
8E	als	.	8G	als	.	8e	als	.	8a#X	die	.
=11	=11	=11	=11	=11	=11	=11	=11	=11	=11	=11	=11
4.BB	mach-	.	(4F#	mach-	.	(4d#X	mach-	.	4a#X	Wip-	.
.	.	.	8A)	.	.	8f#)	.	.	8b	-fel,	.
4BB	-ten	.	4G	-ten	.	4e	-ten	.	4r	.	.
8BB	zu	.	8F#	zu	.	8d#	zu	.	8b	als	.
=12	=12	=12	=12	=12	=12	=12	=12	=12	=12	=12	=12
[4.C	die-	.	(4c	die-	.	[4.e	die-	.	8b	mach-	.
.	.	.	.	.	.	.	.	.	8cc	-ten	.
.	.	.	8G#X	.	.	.	.	.	8b	zu	.
4C]	.	.	4A)	.	.	4e]	.	.	8ee	die-	.
.	.	.	.	.	.	.	.	.	8cc	.	.
8C	-ser	.	8c	-ser	.	8e	-ser	.	8a	-ser	.
=13	=13	=13	=13	=13	=13	=13	=13	=13	=13	=13	=13
4.D	Stund	.	4.B	Stund	.	[4.d	Stund	.	(4.g	Stund	.
8D	.	.	8A	.	.	8d]	.	.	8f#)	.	.
8r	.	.	8r	.	.	8r	.	.	8a	um	.
8r	.	.	8d	die	.	8f#	die	.	8b	die	.
=14	=14	=14	=14	=14	=14	=14	=14	=14	=14	=14	=14
4.r	.	.	4.d#X	al-	.	4.f#	al-	.	4cc	halb-	.
.	.	.	.	.	.	.	.	.	8b	-ver-	.
8r	.	.	4.d#	-ten	.	4.f#	-ten	.	8cc	-fal-	.
8BB	um	.	.	.	.	.	.	.	8b	-le-	.
8BB	die	.	.	.	.	.	.	.	8a	-nen	.
=15	=15	=15	=15	=15	=15	=15	=15	=15	=15	=15	=15
4C	halb-	.	4.f#	Göt-	.	4.a	Göt-	.	4.ee	Mau-	.
8BB	-ver-	.	.	.	.	.	.	.	.	.	.
8C	-fal-	.	4f#	-ter,	.	4a	-ter,	.	4dd#X	-ern	.
8BB	-le-	.	.	.	.	.	.	.	.	.	.
8AA	-nen	.	8d#X	die	.	8f#	die	.	8a	die	.
=16	=16	=16	=16	=16	=16	=16	=16	=16	=16	=16	=16
4.D#X	Mau-	.	4.f#	al-	.	4.a	al-	.	4cc	al-	.
.	.	.	.	.	.	.	.	.	8b	-ten	.
!LO:TX:a:i:t=cresc.	!	!	!LO:TX:a:i:t=cresc.	!	!	!LO:TX:a:i:t=cresc.	!	!	!LO:TX:a:i:t=cresc.	!	!
4D#	-ern	.	4f#	-Göt-	.	4a	-Göt-	.	8cc	Göt-	.
.	.	.	.	.	.	.	.	.	8b	-ter	.
8BB	die	.	8d#X	-die	.	8f#	-die	.	8a	die	.
=17	=17	=17	=17	=17	=17	=17	=17	=17	=17	=17	=17
4C	al-	.	[4.f#	Rund,	.	[4.a	Rund,	.	(4.ee	Rund,	.
8BB	-ten	.	.	.	.	.	.	.	.	.	.
!	!	!LO:DY:a	!	!	!	!	!	!	!	!	!
8C	Göt-	f	4f#]	.	.	4a]	.	.	4dd#X)	.	.
8BB	-ter	.	.	.	.	.	.	.	.	.	.
!	!	!	!	!	!LO:DY:a	!	!	!LO:DY:a	!	!	!LO:DY:a
8AA	die	.	8f#	die	f	8cc	die	f	8dd#	die	f
=18	=18	=18	=18	=18	=18	=18	=18	=18	=18	=18	=18
[4.GG	Rund,	.	4.g	al-	.	4.b	al-	.	[4.ee	al-	.
4.GG]	.	.	4.fn	-ten	.	4.b	-ten	.	4ee]	.	.
.	.	.	.	.	.	.	.	.	8dd	-ten	.
=19	=19	=19	=19	=19	=19	=19	=19	=19	=19	=19	=19
4.AA	Göt-	.	4.e	Göt-	.	4.a	Göt-	.	(4dd	Göt-	.
.	.	.	.	.	.	.	.	.	8cc)	.	.
4BB	-ter,	.	4d	-ter,	.	4g#X	-ter,	.	4b	-ter,	.
*G:	*	*	*G:	*	*	*G:	*	*	*G:	*	*
8C	die	.	8c	die	.	8a	die	.	8a	die	.
=20	=20	=20	=20	=20	=20	=20	=20	=20	=20	=20	=20
4.D	Göt-	.	4.B	Göt-	.	4.g	Göt-	.	4.dd	Göt-	.
4D	-ter	.	4c	-ter	.	4f#	-ter	.	4a	-ter	.
8D	die	.	8d	die	.	8f#	die	.	8b	die	.
=21	=21	=21	=21	=21	=21	=21	=21	=21	=21	=21	=21
4.GG	Rund.	.	(4.c	Rund.	.	(4.f#	Rund.	.	(4.a	Rund.	.
4GG	.	.	4B)	.	.	4g)	.	.	4g)	.	.
!	!	!LO:DY:a	!	!	!LO:DY:a	!	!	!LO:DY:a	!	!	!LO:DY:a
*e:	*	*	*e:	*	*	*e:	*	*	*e:	*	*
8E	Hier	p	8B	Hier	p	8g	Hier	p	8b	Hier	p
=22	=22	=22	=22	=22	=22	=22	=22	=22	=22	=22	=22
4.E	un-	.	4.B	un-	.	8e	un-	.	8g	un-	.
.	.	.	.	.	.	8f#	-ter	.	8a	-ter	.
.	.	.	.	.	.	8g	den	.	8a#X	den	.
4E	-ter	.	4B	-ter	.	8gL	Myr-	.	8bL	Myr-	.
.	.	.	.	.	.	8aJ	.	.	8ccJ	.	.
8E	den	.	8B	den	.	8g	-then-	.	8b	-then-	.
=23	=23	=23	=23	=23	=23	=23	=23	=23	=23	=23	=23
4.E	Bäu-	.	8GL	Bäu-	.	8eL	-bäu-	.	4.ee	-bäu-	.
.	.	.	8A	.	.	8f#	.	.	.	.	.
.	.	.	[8BJ	.	.	[8gJ	.	.	.	.	.
4E	-men	.	8B]	.	.	8g]	.	.	4b	-men	.
.	.	.	8A	-men	.	8f#	-men	.	.	.	.
8E	in	.	8G	in	.	8e	in	.	8b	in	.
=24	=24	=24	=24	=24	=24	=24	=24	=24	=24	=24	=24
4.E	heim-	.	4.c	heim-	.	8f#L	heim-	.	8aL	heim-	.
.	.	.	.	.	.	8gJ	.	.	8bJ	.	.
.	.	.	.	.	.	8a	-lich	.	8cc	-lich	.
4E	-li-	.	4c	-li-	.	8a	däm-	.	8cc	däm-	.
.	.	.	.	.	.	8b	-mern-	.	8dd	-mern-	.
8E	-cher	.	8c	-cher	.	8a	-der	.	8cc	-der	.
=25	=25	=25	=25	=25	=25	=25	=25	=25	=25	=25	=25
[4.D#X	Pracht,	.	8AL	Pracht,	.	8f#L	Pracht,	.	4.ff#	Pracht,	.
.	.	.	8B	.	.	8g	.	.	.	.	.
.	.	.	[8cJ	.	.	[8aJ	.	.	.	.	.
4D#]	.	.	8cL]	.	.	8aL]	.	.	4r	.	.
.	.	.	8BJ	.	.	8gJ	.	.	.	.	.
8D#	was	.	8A	was	.	8f#	was	.	8b	was	.
=26	=26	=26	=26	=26	=26	=26	=26	=26	=26	=26	=26
4.E	sprichst	.	4.G	sprichst	.	4.e	sprichst	.	8bL	sprichst	.
.	.	.	.	.	.	.	.	.	8ggJ	.	.
.	.	.	.	.	.	.	.	.	8ff#	du	.
4.G	du	.	4.B	du	.	4.e	du	.	8ee	wirr	.
.	.	.	.	.	.	.	.	.	8b	wie	.
.	.	.	.	.	.	.	.	.	8g	in	.
=27	=27	=27	=27	=27	=27	=27	=27	=27	=27	=27	=27
!	!	!LO:DY:a	!	!	!LO:DY:a	!	!	!LO:DY:a	!	!	!LO:DY:a
4.A	wirr	>	4.c	wirr	>	4.d#X	wirr	>	4.f#	Träu-	>
4G	.	]	4B	.	]	4e	.	]	4e	-men	]
8G	zu	.	8B	zu	.	8e	zu	.	8g	zu	.
=28	=28	=28	=28	=28	=28	=28	=28	=28	=28	=28	=28
(8EL	mir,	.	(8GL	mir,	.	(8gL	mir,	.	(8bL	mir,	.
8F#J)	.	.	8AJ)	.	.	8f#J)	.	.	8aJ)	.	.
8G	phan-	.	8B	phan-	.	8e	phan-	.	8g	phan-	.
8E	-ta-	.	8G	-ta-	.	8g	-ta-	.	8b	-ta-	.
8F#	-sti-	.	8A	-sti-	.	8f#	-sti-	.	8a	-sti-	.
8G	-sche	.	8B	-sche	.	8e	-sche	.	8g	-sche	.
=29	=29	=29	=29	=29	=29	=29	=29	=29	=29	=29	=29
(4.A	Nacht,	.	(4.c	Nacht,	.	[4.e	Nacht,	.	[4.f#	Nacht,	.
4A#X)	.	.	4c#X)	.	.	4e]	.	.	4f#]	.	.
8F#	hier	.	8e	hier	.	8f#	hier	.	8r	.	.
=30	=30	=30	=30	=30	=30	=30	=30	=30	=30	=30	=30
(4B	un-	.	4.d#X	un-	.	(4f#	un-	.	4.r	.	.
8c)	.	.	.	.	.	8a)	.	.	.	.	.
4B	-ter	.	4d#	-ter	.	4g	-ter	.	4r	.	.
8A	den	.	8d#	den	.	8f#	den	.	8cc	hier	.
=31	=31	=31	=31	=31	=31	=31	=31	=31	=31	=31	=31
4G	Bäu-	.	4B	Bäu-	.	4e	Bäu-	.	8bL	un-	.
.	.	.	.	.	.	.	.	.	8ee	.	.
8G	-men	.	8B	-men	.	8e	-men	.	8ddJ	.	.
4r	.	.	4r	.	.	4r	.	.	4cc	-ter	.
8E	in	.	8G	in	.	8e	in	.	8a#X	den	.
=32	=32	=32	=32	=32	=32	=32	=32	=32	=32	=32	=32
4.BB	heim-	.	(4F#	heim-	.	(4d#X	heim-	.	4a#X	Bäu-	.
.	.	.	8A)	.	.	8f#)	.	.	8b	-men	.
4.BB	-lich	.	(4G	-lich	.	(4e	-lich	.	4r	.	.
.	.	.	8F#)	.	.	8d#)	.	.	8b	in	.
=33	=33	=33	=33	=33	=33	=33	=33	=33	=33	=33	=33
4.C	däm-	.	(4c	däm-	.	4.e	däm-	.	8bL	heim-	.
.	.	.	.	.	.	.	.	.	8ccJ	.	.
.	.	.	8G#X)	.	.	.	.	.	8b	-lich	.
4C	-mern-	.	4A	-mern-	.	4e	-mern-	.	8ee	däm-	.
.	.	.	.	.	.	.	.	.	8cc	-mern-	.
*G:	*	*	*G:	*	*	*G:	*	*	*G:	*	*
8C	-der	.	8c	-der	.	8e	-der	.	8a	-der	.
=34	=34	=34	=34	=34	=34	=34	=34	=34	=34	=34	=34
4.D	Pracht,	.	(4.B	Pracht,	.	[4.d	Pracht,	.	(4.g	Pracht,	.
4.r	.	.	4A)	.	.	4d]	.	.	4f#)	.	.
.	.	.	8d	was	.	8f#	was	.	8a	was	.
=35	=35	=35	=35	=35	=35	=35	=35	=35	=35	=35	=35
*e:	*	*	*e:	*	*	*e:	*	*	*e:	*	*
4.r	.	.	4.d#X	sprichst	.	4.f#	sprichst	.	4cc	sprichst	.
.	.	.	.	.	.	.	.	.	8b	du	.
4r	.	.	4.d#	du	.	4.f#	du	.	8cc	wirr	.
.	.	.	.	.	.	.	.	.	8b	wie	.
8BB	was	.	.	.	.	.	.	.	8a	in	.
=36	=36	=36	=36	=36	=36	=36	=36	=36	=36	=36	=36
4C	sprichst	.	(4.e	wirr	.	[4.a	wirr	.	4.ee	Träu-	.
8BB	du	.	.	.	.	.	.	.	.	.	.
8C	wirr	.	4f#)	.	.	4a]	.	.	4dd#X	-men	.
8BB	wie	.	.	.	.	.	.	.	.	.	.
8AA	in	.	8d#X	zu	.	8f#	zu	.	8a	zu	.
=37	=37	=37	=37	=37	=37	=37	=37	=37	=37	=37	=37
4.D#X	Träu-	.	4.f#	mir,	.	4.a	mir,	.	4cc	mir,	.
.	.	.	.	.	.	.	.	.	8b	phan-	.
4D#	-men	.	(4f#	o	.	(4a	o	.	8ff#	-ta-	.
.	.	.	.	.	.	.	.	.	8dd#X	-sti-	.
8BB	zu	.	8d#X)	.	.	8f#)	.	.	8b	-sche	.
=38	=38	=38	=38	=38	=38	=38	=38	=38	=38	=38	=38
[4.C	mir,	.	(4.d#X	Nacht,	.	(4.f#	Nacht,	.	(4.a	Nacht,	.
4C]	.	.	4e)	.	.	4e)	.	.	4g)	.	.
!	!	!LO:DY:a	!	!	!LO:DY:a	!	!	!LO:DY:a	!	!	!LO:DY:a
8BB	was	f	8G	was	f	8fn	was	f	8g	was	f
=39	=39	=39	=39	=39	=39	=39	=39	=39	=39	=39	=39
[4.C	sprichst,	.	[4.G	sprichst,	.	[4.e	sprichst,	.	(4g	sprichst	.
.	.	.	.	.	.	.	.	.	8cc	.	.
4C]	.	.	4G]	.	.	4e]	.	.	4b)	.	.
8r	.	.	8r	.	.	8r	.	.	8a#X	du	.
=40	=40	=40	=40	=40	=40	=40	=40	=40	=40	=40	=40
4r	.	.	4r	.	.	4r	.	.	4.a#X	wirr,	.
8C	was	.	8G	was	.	8e	was	.	.	.	.
4C	sprichst	.	4F#	sprichst	.	4d#X	sprichst	.	4r	.	.
8C	du	.	8G	du	.	8e	du	.	8a#	was	.
=41	=41	=41	=41	=41	=41	=41	=41	=41	=41	=41	=41
2.C	wirr,	.	2.G	wirr,	.	2.e	wirr,	.	(4a#X	sprichst	.
.	.	.	.	.	.	.	.	.	8ee	.	.
.	.	.	.	.	.	.	.	.	4cc)	.	.
.	.	.	.	.	.	.	.	.	8b	du	.
=42	=42	=42	=42	=42	=42	=42	=42	=42	=42	=42	=42
!	!	!LO:DY:a	!	!	!LO:DY:a	!	!	!LO:DY:a	!	!	!
4.c	was	f	4.e	was	f	4.g	was	f	4.a#X	wirr,	.
4c	sprichst	.	4e	sprichst	.	4g	sprichst	.	4r	.	.
8c	du	.	8e	du	.	8g	du	.	8a#	was	.
=43	=43	=43	=43	=43	=43	=43	=43	=43	=43	=43	=43
!	!	!	!	!	!	!	!	!	!	!	!LO:DY:a
[4.B	wirr,	.	[4.e	wirr,	.	[4.g	wirr,	.	(4b	sprichst	<
.	.	.	.	.	.	.	.	.	8gg	.	.
4B]	.	.	4e]	.	.	4g]	.	.	4ee)	.	.
8r	.	.	8r	.	.	8r	.	.	8cc	du	[
=44	=44	=44	=44	=44	=44	=44	=44	=44	=44	=44	=44
!	!	!	!	!	!	!	!	!	!	!	!LO:DY:a
2.r	.	.	2.r	.	.	2.r	.	.	(4a#X	wirr	>
.	.	.	.	.	.	.	.	.	8b)	.	.
.	.	.	.	.	.	.	.	.	4e	wie	.
.	.	.	.	.	.	.	.	.	8f#	in	]
=45	=45	=45	=45	=45	=45	=45	=45	=45	=45	=45	=45
!	!	!	!	!	!	!	!	!	!	!	!LO:DY:a
4.r	.	.	4.r	.	.	4.r	.	.	[4.g	Tru-	p
!	!	!LO:DY:a	!	!	!LO:DY:a	!	!	!LO:DY:a	!	!	!
4.BB	o	p	4.A	o	p	4.d#X	o	p	4g]	.	.
.	.	.	.	.	.	.	.	.	8f#	.	.
=46	=46	=46	=46	=46	=46	=46	=46	=46	=46	=46	=46
4.E	Nacht,	.	4.G	Nacht,	.	4.e	Nacht,	.	4.e	-men,	.
4r	.	.	4r	.	.	4r	.	.	4r	.	.
!	!	!LO:DY:a	!	!	!LO:DY:a	!	!	!LO:DY:a	!	!	!LO:DY:a
8B	phan-	f	8e	phan-	f	8g	phan-	f	8b	phan-	f
=47	=47	=47	=47	=47	=47	=47	=47	=47	=47	=47	=47
[4.A	-ta-	.	[4.e	-ta-	.	[4.g	-ta-	.	[4.cc	-ta-	.
8A]	.	.	8e]	.	.	8g]	.	.	8cc]	.	.
8B	-sti-	.	8e	-sti-	.	8g	-sti-	.	8b	-sti-	.
8c	-sche	.	8e	-sche	.	8g	-sche	.	8a	-sche	.
=48	=48	=48	=48	=48	=48	=48	=48	=48	=48	=48	=48
4.B	Nacht,	.	4.f#	Nacht,	.	4.a	Nacht,	.	(4.ee	Nacht,	.
4r	.	.	4r	.	.	4r	.	.	4dd#X)	.	.
!	!	!LO:DY:a	!	!	!LO:DY:a	!	!	!LO:DY:a	!	!	!LO:DY:a
8BB	phan-	f	8d#X	phan-	f	8f#	phan-	f	8b	phan-	f
=49	=49	=49	=49	=49	=49	=49	=49	=49	=49	=49	=49
[4.AA	-ta-	.	[4.e	-ta-	.	[4.g	-ta-	.	[4.cc	-ta-	.
8AA]	.	.	8e]	.	.	8g]	.	.	8cc]	.	.
8BB	-sti-	.	8e	-sti-	.	8g	-sti-	.	8b	-sti-	.
8C	-sche	.	8e	-sche	.	8g	-sche	.	8a	-sche	.
=50	=50	=50	=50	=50	=50	=50	=50	=50	=50	=50	=50
4.BB;	Nacht?	.	4.d#X;	Nacht?	.	4.a;	Nacht?	.	4.gg;	Nacht?	.
4BB;	.	.	4d#	.	.	4a;	.	.	4ff#;	.	.
!	!	!LO:DY:a	!	!	!LO:DY:a	!	!	!LO:DY:a	!	!	!LO:DY:a
8BB	Es	p	8A	Es	p	8d#X	Es	p	8b	Es	p
=||51	=||51	=||51	=||51	=||51	=||51	=||51	=||51	=||51	=||51	=||51	=||51
*k[f#c#g#d#]	*	*	*k[f#c#g#d#]	*	*	*k[f#c#g#d#]	*	*	*k[f#c#g#d#]	*	*
*E:	*	*	*E:	*	*	*E:	*	*	*E:	*	*
*M4/4	*	*	*M4/4	*	*	*M4/4	*	*	*M4/4	*	*
*met(c)	*	*	*met(c)	*	*	*met(c)	*	*	*met(c)	*	*
!	!	!	!	!	!	!	!	!	!LO:TX:a:B:t=Allegro molto	!	!
4E	fun-	.	4G#	fun-	.	4e	fun-	.	4b	fun-	.
8E	-keln	.	8B	-keln	.	8e	-keln	.	8g#	-keln	.
8E	mir	.	8A	mir	.	8e	mir	.	8a	mir	.
4E	zu	.	4G#	zu	.	4e	zu	.	4b	zu	.
8E	al-	.	8A	al-	.	8e	al-	.	8cc#	al-	.
8E	-le	.	8B	-le	.	8e	-le	.	8dd#	-le	.
=52	=52	=52	=52	=52	=52	=52	=52	=52	=52	=52	=52
!	!	!LO:DY:a	!	!	!LO:DY:a	!	!	!LO:DY:a	!	!	!LO:DY:a
2E	Ster-	<	(4.c#	Ster-	<	2a	Ster-	<	(4.ee	Ster-	<
.	.	.	8d#)	.	[	.	.	.	8cc#)	.	[
4E	-ne	[	4e	-ne	.	4g#	-ne	[	4b	-ne	.
!	!	!LO:DY:a	!	!	!LO:DY:a	!	!	!LO:DY:a	!	!	!LO:DY:a
4E	mit	f	4e	mit	f	4g#	mit	f	8bL	mit	f
.	.	.	.	.	.	.	.	.	8gg#J	.	.
=53	=53	=53	=53	=53	=53	=53	=53	=53	=53	=53	=53
4BB	glü-	.	4d#	glü-	.	4a	glü-	.	8gg#L	glü-	.
.	.	.	.	.	.	.	.	.	8ff#J	.	.
2BB	-hen-	.	2d#	-hen-	.	2a	-hen-	.	8dd#L	-hen-	.
.	.	.	.	.	.	.	.	.	8cc#J	-dem	.
.	.	.	.	.	.	.	.	.	4b	Lie-	.
4E	-dem	.	8BL	-dem	.	8g#L	-dem	.	4b	-bes-	.
.	.	.	8g#J	.	.	8eJ	.	.	.	.	.
=54	=54	=54	=54	=54	=54	=54	=54	=54	=54	=54	=54
2.BB	Blick,	.	8g#L	Lie-	.	2d#	Blick,	.	2b	-blick,	.
.	.	.	8f#J	.	.	.	.	.	.	.	.
.	.	.	8d#L	-bes-	.	.	.	.	.	.	.
.	.	.	8c#J	.	.	.	.	.	.	.	.
.	.	.	4B	-blick,	.	4r	.	.	4r	.	.
!	!	!LO:DY:a	!	!	!LO:DY:a	!	!	!LO:DY:a	!	!	!LO:DY:a
4BB	es	p	4A	es	p	4d#	es	p	4b	es	p
=55	=55	=55	=55	=55	=55	=55	=55	=55	=55	=55	=55
4E	re-	.	4G#	re-	.	4e	re-	.	4b	re-	.
4E	-det	.	8BL	-det	.	4e	-det	.	8g#L	-det	.
.	.	.	8AJ	.	.	.	.	.	8aJ	.	.
!	!	!LO:DY:a	!	!	!LO:DY:a	!	!	!LO:DY:a	!	!	!LO:DY:a
4E	trun-	<	4G#	trun-	<	4e	trun-	<	4b	trun-	<
8E	-ken	.	8A	-ken	.	8e	-ken	.	8cc#	-ken	.
8E	die	[	8B	die	[	8e	die	[	8dd#	die	[
=56	=56	=56	=56	=56	=56	=56	=56	=56	=56	=56	=56
2E	Fer-	.	(4.c#	Fer-	.	2a	Fer-	.	(4.ee	Fer-	.
.	.	.	8d#)	.	.	.	.	.	8cc#)	.	.
4E	-ne	.	4e	-ne	.	4g#	-ne	.	4b	-ne	.
!	!	!LO:DY:a	!	!	!LO:DY:a	!	!	!LO:DY:a	!	!	!LO:DY:a
4E	von	p	4e	von	p	4gn	von	p	4b	von	p
=57	=57	=57	=57	=57	=57	=57	=57	=57	=57	=57	=57
!LO:TX:a:i:t=cresc.	!	!	!LO:TX:a:i:t=cresc.	!	!	!LO:TX:a:i:t=cresc.	!	!	!LO:TX:a:i:t=cresc.	!	!
2F#	künf-	.	4d#	künf-	.	4f#	künf-	.	4b	künf-	.
.	.	.	8c#	-ti-	.	2e	-ti-	.	8a#X	-ti-	.
.	.	.	8B	.	.	.	.	.	8g#	-gem	.
4F#	.	.	4A#X	.	.	.	.	.	4f#	gro-	.
*c#:	*	*	*c#:	*	*	*c#:	*	*	*c#:	*	*
4F##X	-gem	.	4A#	-gem	.	4e	-gem	.	4cc#	-ßen	.
=58	=58	=58	=58	=58	=58	=58	=58	=58	=58	=58	=58
2.G#	Glück,	.	(2A#X	Glück,	.	(2e	Glück,	.	(2cc#	Glück,	.
.	.	.	4B#X)	.	.	4d#)	.	.	4b#X)	.	.
!	!	!	!	!	!	!	!	!	!	!	!LO:DY:a
4r	.	.	4r	.	.	4r	.	.	4g#	von	f
=59	=59	=59	=59	=59	=59	=59	=59	=59	=59	=59	=59
4r	.	.	4r	.	.	4r	.	.	(1ff#	künf-	.
!	!	!LO:DY:a	!	!	!LO:DY:a	!	!	!LO:DY:a	!	!	!
4GG#	die	f	4B#X	die	f	4g#	die	f	.	.	.
4AA#X	Fer-	.	4c#	Fer-	.	4g#	Fer-	.	.	.	.
4BB#X	-ne	.	4d#	-ne	.	4g#	-ne	.	.	.	.
=60	=60	=60	=60	=60	=60	=60	=60	=60	=60	=60	=60
(4C#	re-	.	(4e	re-	.	2g#	re-	.	4ee	.	.
4D#)	.	.	4B#X)	.	.	.	.	.	4dd#)	.	.
4E	-det	.	4c#	-det	.	4g#	-det	.	4cc#	-ti-	.
*B:	*	*	*B:	*	*	*B:	*	*	*B:	*	*
4E#X	von	.	4dn	von	.	4g#	von	.	4g#	-gem	.
=61	=61	=61	=61	=61	=61	=61	=61	=61	=61	=61	=61
2F#	gro-	.	2dn	gro-	.	(2f#	gro-	.	(2b	gro-	.
2F#	-ßem	.	2A#X	-ßem	.	4.e)	.	.	4.cc#)	.	.
.	.	.	.	.	.	8f#	-ßem	.	8dd#	-ßen	.
=62	=62	=62	=62	=62	=62	=62	=62	=62	=62	=62	=62
2.BB	Glück,	.	(2A#X	Glück,	.	(2e	Glück,	.	(2cc#	Glück,	.
.	.	.	4B)	.	.	4d#)	.	.	4b)	.	.
!	!	!LO:DY:a	!	!	!LO:DY:a	!	!	!LO:DY:a	!	!	!LO:DY:a
*E:	*	*	*E:	*	*	*E:	*	*	*E:	*	*
4BB	es	p	4An	es	p	4d#	es	p	4b	es	p
=63	=63	=63	=63	=63	=63	=63	=63	=63	=63	=63	=63
4E	fun-	.	4G#	fun-	.	4e	fun-	.	4b	fun-	.
8E	-keln	.	8B	-keln	.	8e	-keln	.	8g#	-keln	.
8E	mir	.	8A	mir	.	8e	mir	.	8a	mir	.
!	!	!LO:DY:a	!	!	!LO:DY:a	!	!	!LO:DY:a	!	!	!LO:DY:a
4E	zu	<	4G#	zu	<	4e	zu	<	4b	zu	<
8E	al-	.	8A	al-	.	8e	al-	.	8cc#	al-	.
8E	-le	[	8B	-le	[	8e	-le	[	8dd#	-le	[
=64	=64	=64	=64	=64	=64	=64	=64	=64	=64	=64	=64
2E	Ster-	.	(4.c#	Ster-	.	2a	Ster-	.	(4.ee	Ster-	.
.	.	.	8d#)	.	.	.	.	.	8cc#)	.	.
4E	-ne	.	4e	-ne	.	4g#	-ne	.	4b	-ne	.
!	!	!LO:DY:a	!	!	!LO:DY:a	!	!	!LO:DY:a	!	!	!LO:DY:a
4E	mit	f	4e	mit	f	4g#	mit	f	8bL	mit	f
.	.	.	.	.	.	.	.	.	8gg#J	.	.
=65	=65	=65	=65	=65	=65	=65	=65	=65	=65	=65	=65
4BB	glü-	.	4d#	glü-	.	4a	glü-	.	8gg#L	glü-	.
.	.	.	.	.	.	.	.	.	8ff#J	.	.
2BB	-hen-	.	2d#	-hen-	.	2a	-hen-	.	8dd#	-hen-	.
.	.	.	.	.	.	.	.	.	8cc#	-dem	.
.	.	.	.	.	.	.	.	.	4b	Lie-	.
4E	-dem	.	8BL	-dem	.	8g#L	-dem	.	4b	-bes-	.
.	.	.	8g#J	.	.	8eJ	.	.	.	.	.
=66	=66	=66	=66	=66	=66	=66	=66	=66	=66	=66	=66
2BB	Blick,	.	8g#L	Lie-	.	2d#	Blick,	.	2b	-blick,	.
.	.	.	8f#J	.	.	.	.	.	.	.	.
.	.	.	8d#L	-bes-	.	.	.	.	.	.	.
.	.	.	8c#J	.	.	.	.	.	.	.	.
4r	.	.	4B	-blick,	.	4r	.	.	4r	.	.
!	!	!LO:DY:a	!	!	!LO:DY:a	!	!	!LO:DY:a	!	!	!LO:DY:a
4BB	es	p	4A	es	p	4d#	es	p	4b	es	p
=67	=67	=67	=67	=67	=67	=67	=67	=67	=67	=67	=67
4E	re-	.	4G#	re-	.	4e	re-	.	4b	re-	.
4E	-det	.	8BL	-det	.	4e	-det	.	8g#L	-det	.
.	.	.	8AJ	.	.	.	.	.	8aJ	.	.
4E	trun-	.	4G#	trun-	.	4e	trun-	.	4b	trun-	.
8E	-ken	.	8A	-ken	.	8e	-ken	.	8cc#	-ken	.
8E	die	.	8B	die	.	8e	die	.	8ddn	die	.
=68	=68	=68	=68	=68	=68	=68	=68	=68	=68	=68	=68
2AA	Fer-	.	2G#	Fer-	.	2e	Fer-	.	2b#X	Fer-	.
4AA	-ne,	.	4A	-ne,	.	4e	-ne,	.	4cc#	-ne,	.
4r	.	.	4r	.	.	8aL	es	.	4r	.	.
.	.	.	.	.	.	8g#J	.	.	.	.	.
=69	=69	=69	=69	=69	=69	=69	=69	=69	=69	=69	=69
4r	.	.	4r	.	.	4g#	re-	.	1r	.	.
4A	es	.	4c#	es	.	2f#	-det	.	.	.	.
4c#	re-	.	4e	re-	.	.	.	.	.	.	.
4A	-det,	.	4c#	-det,	.	8aL	die	.	.	.	.
.	.	.	.	.	.	8g#J	.	.	.	.	.
=70	=70	=70	=70	=70	=70	=70	=70	=70	=70	=70	=70
4r	.	.	4r	.	.	4g#	Fer-	.	2r	.	.
4A	es	.	4c#	es	.	2.f#	-ne,	.	.	.	.
4c#	re-	.	4e	re-	.	.	.	.	4r	.	.
4A	-det,	.	4c#	-det,	.	.	.	.	8dd#L	es	.
.	.	.	.	.	.	.	.	.	8cc#J	.	.
=71	=71	=71	=71	=71	=71	=71	=71	=71	=71	=71	=71
4r	.	.	4r	.	.	4r	.	.	4cc#	re-	.
4A	es	.	4B	es	.	4d#	es	.	2b	-det	.
4B	re-	.	4d#	re-	.	4f#	re-	.	.	.	.
4A	-det,	.	4B	-det,	.	4d#	-det,	.	8dd#L	die	.
.	.	.	.	.	.	.	.	.	8cc#J	.	.
=72	=72	=72	=72	=72	=72	=72	=72	=72	=72	=72	=72
4r	.	.	4r	.	.	4r	.	.	4cc#	Fer-	.
4A	es	.	4B	es	.	4d#	es	.	2b	-ne,	.
4B	re-	.	4d#	re-	.	4f#	re-	.	.	.	.
4A	-det	.	4B	-det	.	4d#	-det	.	4b	es	.
=73	=73	=73	=73	=73	=73	=73	=73	=73	=73	=73	=73
2G#	trun-	.	2e	trun-	.	2b	trun-	.	2ee	re-	.
4G#	-ken	.	4e	-ken	.	4b#X	-ken	.	4ee	-det,	.
4G#	die	.	4e	die	.	4b#	die	.	4ee	die	.
=74	=74	=74	=74	=74	=74	=74	=74	=74	=74	=74	=74
2A	Fer-	.	2e	Fer-	.	2cc#	Fer-	.	(4ff#	Fer-	.
.	.	.	.	.	.	.	.	.	4ee)	.	.
4A	-ne	.	4e	-ne	.	4a	-ne	.	4cc#	-ne	.
4r	.	.	4r	.	.	4r	.	.	4b	von	.
=75	=75	=75	=75	=75	=75	=75	=75	=75	=75	=75	=75
4r	.	.	4r	.	.	4r	.	.	4f#	künf-	.
4AA	von	.	4c#	von	.	4e	von	.	8a	-ti-	.
.	.	.	.	.	.	.	.	.	8cc#	-gem	.
4BB	gro-	.	4G#	gro-	.	4e	gro-	.	4.b	gro-	.
4BB	-ßem	.	4F#	-ßem	.	4d#	-ßem	.	.	.	.
.	.	.	.	.	.	.	.	.	8a	-ßen	.
=76	=76	=76	=76	=76	=76	=76	=76	=76	=76	=76	=76
2.C#	Glück,	.	(2F#	Glück,	.	(2d#	Glück,	.	(2a	Glück,	.
.	.	.	4E)	.	.	4e)	.	.	4g#)	.	.
4D#	es	.	4A	es	.	4f#	es	.	4b	es	.
=77	=77	=77	=77	=77	=77	=77	=77	=77	=77	=77	=77
2E	re-	.	2G#	re-	.	2e	re-	.	2ee	re-	.
4E	-det	.	4B	-det	.	4g#	-det	.	2ee	-det	.
4E	die	.	4B#X	die	.	4g#	die	.	.	.	.
=78	=78	=78	=78	=78	=78	=78	=78	=78	=78	=78	=78
2AA	Fer-	.	2c#	Fer-	.	2a	Fer-	.	(4ff#	trun-	.
.	.	.	.	.	.	.	.	.	4ee)	.	.
4AA	-ne	.	4c#	-ne	.	4e	-ne	.	4cc#	-ken	.
4r	.	.	4r	.	.	4r	.	.	4a	die	.
=79	=79	=79	=79	=79	=79	=79	=79	=79	=79	=79	=79
1r	.	.	1r	.	.	1r	.	.	(4e#X	Fer-	.
.	.	.	.	.	.	.	.	.	4f#)	.	.
.	.	.	.	.	.	.	.	.	4a	-ne	.
.	.	.	.	.	.	.	.	.	4cc#	von	.
=80	=80	=80	=80	=80	=80	=80	=80	=80	=80	=80	=80
2r	.	.	2r	.	.	2r	.	.	([1ee	gro-	.
2AA#X	von	.	2F#	von	.	2c#	von	.	.	.	.
=81	=81	=81	=81	=81	=81	=81	=81	=81	=81	=81	=81
2BB	gro-	.	2G#	gro-	.	2e	gro-	.	4ee]	.	.
.	.	.	.	.	.	.	.	.	4b	.	.
2BB	-ßem	.	(4F#	-ßem	.	2d#	-ßem	.	4a	.	.
.	.	.	4A)	.	.	.	.	.	4f#)	-ßem	.
=82	=82	=82	=82	=82	=82	=82	=82	=82	=82	=82	=82
4E	Glück,	.	4G#	Glück,	.	4B	Glück,	.	4e	Glück,	.
4r	.	.	4r	.	.	4r	.	.	4r	.	.
4r	.	.	4r	.	.	4r	.	.	4r	.	.
4E	es	.	4G#	es	.	4B	es	.	4e	es	.
=83	=83	=83	=83	=83	=83	=83	=83	=83	=83	=83	=83
4E	re-	.	4dn	re-	.	4e	re-	.	4b	re-	.
4E	-det	.	4d	-det	.	4e	-det	.	4b	-det	.
4E	trun-	.	4d	trun-	.	4e	trun-	.	4b	trun-	.
8E	-ken	.	8c#	-ken	.	8e	-ken	.	8a	-ken	.
8E	die	.	8B#X	die	.	8e	die	.	8g#	die	.
=84	=84	=84	=84	=84	=84	=84	=84	=84	=84	=84	=84
2E	Fer-	.	2B#X	Fer-	.	2e	Fer-	.	2g#	Fer-	.
4E	-ne	.	4c#	-ne	.	4e	-ne	.	4a	-ne	.
4E	von	.	4c#	von	.	4e	von	.	4e	von	.
=85	=85	=85	=85	=85	=85	=85	=85	=85	=85	=85	=85
4E	künf-	.	4Bn	künf-	.	4e	künf-	.	4ddn	künf-	.
8E	-ti-	.	8B	-ti-	.	8e	-ti-	.	8dd	-ti-	.
8E	-gem	.	8B	-gem	.	8e	-gem	.	8dd	-gem	.
4E	gro-	.	4B	gro-	.	8e	gro-	.	4dd	gro-	.
.	.	.	.	.	.	4e	.	.	.	.	.
4E	-ßen	.	8AL	-ßen	.	.	.	.	8cc#L	-ßen	.
.	.	.	8G#J	.	.	8e	.	.	8b#XJ	.	.
=86	=86	=86	=86	=86	=86	=86	=86	=86	=86	=86	=86
2.E	Glück,	.	(2G#	Glück,	.	2.e	-Glück,	.	(2b#X	Glück,	.
.	.	.	4A)	.	.	.	.	.	4cc#)	.	.
4E	von	.	4c#	von	.	4a	von	.	4ee	von	.
=87	=87	=87	=87	=87	=87	=87	=87	=87	=87	=87	=87
[1E	gro-	.	[1d#	gro-	.	[1f#	gro-	.	(4aa	künf-	.
.	.	.	.	.	.	.	.	.	4ff#)	.	.
.	.	.	.	.	.	.	.	.	4dd#	-ti-	.
.	.	.	.	.	.	.	.	.	4b	-gem	.
=88	=88	=88	=88	=88	=88	=88	=88	=88	=88	=88	=88
2E]	.	.	2d#]	.	.	2f#]	.	.	2.a	gro-	.
2E	-ßem	.	2d#	-ßem	.	2f#	-ßem	.	.	.	.
.	.	.	.	.	.	.	.	.	4b	-ßen	.
=89	=89	=89	=89	=89	=89	=89	=89	=89	=89	=89	=89
[1E	Glück.	.	[1B	Glück.	.	(1d#	Glück.	.	(1a	Glück.	.
=90	=90	=90	=90	=90	=90	=90	=90	=90	=90	=90	=90
2.E]	.	.	2.B]	.	.	2.e)	.	.	2.g#)	.	.
4r	.	.	4r	.	.	4r	.	.	4r	.	.
==	==	==	==	==	==	==	==	==	==	==	==
*-	*-	*-	*-	*-	*-	*-	*-	*-	*-	*-	*-
!!!system-decoration: ([s1,s2,s3,s4])
!!!EED: Imke Redecker